X: 1
T: Phesim Dumbuggin
%%VWML:Button1809-2292a-p1-0
F:http://www.vwml.org/record/Button1809/2292a/p1
%R: slip-jig
B: "Twenty Four Country Dances with Figures for the Year 1809", Button & Whitaker, p.1 #1
F: http://www.vwml.org/browse/browse-collections-dance-tune-books/browse-button1809
Z: 2014 John Chambers <jc:trillian.mit.edu>
M: 9/8
L: 1/8
K: A
% - - - - - - - - - - - - - - - - - - - - - - - - - - - - -
|:\
dBA GFE GEF | ABc cde e2c |\
dBA GFE GFE | ABc dBG A3 :|
|:\
fgf agf edc | ded fed c2c |\
dBA GFE GFE | Ace dBG A3 :|
% - - - - - - - - - - Dance description - - - - - - - - - -
W:
W:Hands 6 quite round, back again, down the
W:mid: up again, Promenade & Pousette.
W:
T: the Young Quaker
%R: jig
B: "Twenty Four Country Dances with Figures for the Year 1809", Button & Whitaker, p.1 #2
F: http://www.vwml.org/browse/browse-collections-dance-tune-books/browse-button1809
Z: 2014 John Chambers <jc:trillian.mit.edu>
M: 6/8
L: 1/8
K: A
%%slurgraces 1
%%graceslurs 1
% - - - - - - - - - - - - - - - - - - - - - - - - - - - - -
{AB}c |\
(cB).A (AG).F | (FE).E E2{AB}c |\
(cB).A ({B}AG).A | (c3 B2){AB}c |\
(cB).A (AG).F | (FE).E E2A |
(AG).G (GA).B | (B3 A2) :|\
|: e |\
({f}e^de) fga | (ecA) (Ace) |\
({f}e^de) (fga) | (e3 c2)e |
[1 ({f}e^de) (fga) | (ec).A ({B}AGA) |\
(AG).G (GAB) | (B3 A2) :|\
[2 ({f}ed).d ({e}dc).c | (BcA) (GFE) |\
(ABc) (dBe) | (c3 A2) |]
% - - - - - - - - - - Dance description - - - - - - - - - -
W:
W:Lead down the mid: up again & Allemande, swing
W:corners, and foot it outsides.
W:
